X: 31597
T: Palmer's Gate
R: reel
M: 4/4
K: Eminor
|:BEEF G2BG|A2BG AGEF|G2GA BAGA|Bded BAGA|
BEEF G2BG|A2BG AGEF|GABd edBA|GEFD E2GA:|
|:Beed e2ef|g2fg edBA|G2BG dGBG|Bded BAGA|
Beed e2ef|g2fg edBA|GABd edBA|GEFD E2GA:|

